icons/svg/tourist/animal.svg

<?xml version="1.0" encoding="UTF-8" standalone="no"?>
<!-- Created with Inkscape (http://www.inkscape.org/) -->

<svg
   xmlns:dc="http://purl.org/dc/elements/1.1/"
   xmlns:cc="http://creativecommons.org/ns#"
   xmlns:rdf="http://www.w3.org/1999/02/22-rdf-syntax-ns#"
   xmlns:svg="http://www.w3.org/2000/svg"
   xmlns="http://www.w3.org/2000/svg"
   xmlns:sodipodi="http://sodipodi.sourceforge.net/DTD/sodipodi-0.dtd"
   xmlns:inkscape="http://www.inkscape.org/namespaces/inkscape"
   version="1.0"
   width="580"
   height="580"
   id="svg2"
   sodipodi:version="0.32"
   inkscape:version="0.48.4 r9939"
   sodipodi:docname="attraction_animal.svg"
   inkscape:output_extension="org.inkscape.output.svg.inkscape">
  <metadata
     id="metadata2975">
    <rdf:RDF>
      <cc:Work
         rdf:about="">
        <dc:format>image/svg+xml</dc:format>
        <dc:type
           rdf:resource="http://purl.org/dc/dcmitype/StillImage" />
        <cc:license
           rdf:resource="http://web.resource.org/cc/PublicDomain" />
        <dc:language>en</dc:language>
        <dc:title />
      </cc:Work>
    </rdf:RDF>
  </metadata>
  <sodipodi:namedview
     inkscape:window-height="1004"
     inkscape:window-width="1920"
     inkscape:pageshadow="2"
     inkscape:pageopacity="0.0"
     guidetolerance="10.0"
     gridtolerance="10.0"
     objecttolerance="10.0"
     borderopacity="1.0"
     bordercolor="#666666"
     pagecolor="#ffffff"
     id="base"
     inkscape:zoom="0.32586207"
     inkscape:cx="54.356557"
     inkscape:cy="568.59309"
     inkscape:window-x="1680"
     inkscape:window-y="0"
     inkscape:current-layer="svg2"
     showgrid="false"
     inkscape:window-maximized="1" />
  <defs
     id="defs4">
    <inkscape:perspective
       sodipodi:type="inkscape:persp3d"
       inkscape:vp_x="0 : 290 : 1"
       inkscape:vp_y="0 : 1000 : 0"
       inkscape:vp_z="580 : 290 : 1"
       inkscape:persp3d-origin="290 : 193.33333 : 1"
       id="perspective2441" />
    <inkscape:perspective
       id="perspective3452"
       inkscape:persp3d-origin="30 : 20 : 1"
       inkscape:vp_z="60 : 30 : 1"
       inkscape:vp_y="0 : 1000 : 0"
       inkscape:vp_x="0 : 30 : 1"
       sodipodi:type="inkscape:persp3d" />
    <symbol
       viewBox="244.5 110 489 219.9"
       id="symbol-university">
      <path
         id="path4460"
         d="M79,43l57,119c0,0,21-96,104-96s124,106,124,106l43-133l82-17L0,17L79,43z" />
      <path
         id="path4462"
         d="M94,176l-21,39"
         stroke-width="20"
         stroke="#000000"
         fill="none" />
      <path
         id="path4464"
         d="M300,19c0,10.5-22.6,19-50.5,19S199,29.5,199,19s22.6-19,50.5-19S300,8.5,300,19z" />
      <path
         id="path4466"
         d="M112,216l-16-38L64,88c0,0-9-8-4-35s16-24,16-24"
         stroke-width="20"
         stroke="#000000"
         ill="none" />
    </symbol>
    <inkscape:perspective
       id="perspective4471"
       inkscape:persp3d-origin="372.04724 : 350.78739 : 1"
       inkscape:vp_z="744.09448 : 526.18109 : 1"
       inkscape:vp_y="0 : 1000 : 0"
       inkscape:vp_x="0 : 526.18109 : 1"
       sodipodi:type="inkscape:persp3d" />
    <inkscape:perspective
       id="perspective4668"
       inkscape:persp3d-origin="6 : 4 : 1"
       inkscape:vp_z="12 : 6 : 1"
       inkscape:vp_y="0 : 1000 : 0"
       inkscape:vp_x="0 : 6 : 1"
       sodipodi:type="inkscape:persp3d" />
    <inkscape:perspective
       id="perspective4904"
       inkscape:persp3d-origin="16 : 10.666667 : 1"
       inkscape:vp_z="32 : 16 : 1"
       inkscape:vp_y="0 : 1000 : 0"
       inkscape:vp_x="0 : 16 : 1"
       sodipodi:type="inkscape:persp3d" />
  </defs>
  <g
     id="g1327">
    <path
       d="M 66.275,1.768 C 24.94,1.768 1.704,23.139 1.704,66.804 L 1.704,516.927 C 1.704,557.771 22.599,579.156 63.896,579.156 L 515.92,579.156 C 557.227,579.156 578.149,558.841 578.149,516.927 L 578.149,66.804 C 578.149,24.203 557.227,1.768 514.628,1.768 C 514.624,1.768 66.133,1.625 66.275,1.768 z "
       style="fill:#111;stroke:#eee;stroke-width:3.40799999"
       id="path1329" />
  </g>
  <path
     style="fill:#ffffff;fill-opacity:1"
     inkscape:connector-curvature="0"
     d="m 507.08779,462.12829 c -5.47769,-37.16098 -12.19288,-46.29653 -23.78521,-67.62496 9.53592,-43.71237 -6.09644,-87.73412 -23.16646,-104.1854 15.85074,-51.17369 -18.90806,-75.79601 -62.78421,-88.80781 11.31935,-9.04457 11.04638,-29.97264 3.1119,-41.01902 1.94722,-6.36941 -0.25476,-11.15557 -1.69243,-16.39668 5.95084,-4.24021 5.40489,-14.79524 2.83893,-23.18467 -10.50043,-34.231039 -39.08999,-66.260084 -57.48849,-66.260084 -94.35831,0 -110.09985,82.911554 -112.61123,109.317314 -98.21634,10.06368 -101.05528,71.46481 -79.54485,111.7559 -6.84258,39.12639 0.69152,58.88977 29.31749,86.58762 -33.64869,-7.00636 -42.74786,-48.71691 -43.76697,-63.82152 -28.24381,2.00181 -56.451197,29.88165 -48.352945,66.46027 -18.616883,22.63871 -30.209212,52.53856 -19.363016,100.8369 -7.661489,4.51319 -15.122806,17.3612 -15.122806,25.67784 0,22.32934 9.135562,32.84797 23.275652,33.26653 22.656915,0.67334 60.982585,0.61875 75.468445,0.61875 14.48588,0 13.55775,-11.11918 13.55775,-16.17832 0,-11.8835 -10.39124,-23.07547 -25.29566,-32.53859 18.07094,-6.76978 26.09639,-34.99537 24.67692,-43.76696 6.44221,3.62146 36.52404,6.78797 44.64049,3.65786 6.87896,16.06911 16.68786,39.49035 33.06635,50.17277 0,0 0.45496,4.73155 -1.32849,2.40217 -1.80162,-2.34758 -4.91354,-3.34848 -8.6078,-3.34848 -14.59505,0 -21.23744,39.59955 16.97904,39.59955 h 61.14637 c 17.27019,0 25.18647,-8.18925 25.18647,-21.00087 0,-16.48768 -5.96905,-33.37572 -17.96174,-41.96534 3.51227,-26.75152 4.36759,-69.00803 -24.96811,-103.9124 10.26386,-46.42392 2.45678,-79.65406 -24.60412,-110.20906 39.78153,22.25657 51.61043,76.54215 41.2374,103.36647 19.5632,23.45765 26.42396,39.09001 28.37117,62.05628 75.32286,-44.94984 87.69772,-74.48572 87.07898,-101.8196 -0.74613,-32.82977 -30.04543,-81.71047 -30.04543,-81.71047 4.62237,3.89444 36.99719,45.18644 43.60318,75.35926 3.2029,14.66784 5.85985,59.32653 -48.64412,98.10714 2.18381,31.70148 14.90442,59.6177 42.94804,77.88883 3.96724,8.77158 0.56415,17.252 -3.11191,18.94445 3.11191,-10.75522 -1.98362,-14.70424 -9.33574,-14.70424 -14.59505,0 -21.23744,39.59955 16.97904,39.59955 h 61.14637 c 17.27019,0 25.18647,-8.18925 25.18647,-21.00087 -0.0364,-16.63327 -6.04185,-33.68509 -18.23472,-42.22011 z M 368.47116,209.13522 c -17.54318,0 -19.18102,-24.96811 -14.15829,-30.53679 -32.82977,-25.73243 -17.2702,-40.16369 -2.111,-37.39755 7.09734,1.29208 29.86344,5.71428 40.0909,4.82255 2.2202,3.71246 1.36488,10.50044 0.30937,16.05093 2.47498,2.36578 6.71518,7.75249 5.87807,17.92535 -0.50956,6.09643 -8.20745,29.13551 -30.00905,29.13551 z"
     id="path3" />
  <path
     style="fill:#ffffff;fill-opacity:1"
     inkscape:connector-curvature="0"
     d="m 390.30916,150.24544 c 1.29207,0.32757 2.34757,1.32849 2.34757,2.72975 0,1.65605 -1.32848,2.98452 -2.98452,2.98452 -1.65604,0 -2.98453,-1.32847 -2.98453,-2.98452 0,-0.60053 0.32758,-1.09189 0.65514,-1.56505 -1.80163,0.69154 -3.51227,1.27389 -4.76795,1.27389 -1.31028,0 -2.82074,-0.32758 -4.3858,-0.74614 0.21838,0.41856 0.54595,0.80073 0.54595,1.31028 0,1.65606 -1.32848,2.98452 -2.98452,2.98452 -1.65605,0 -2.98453,-1.32846 -2.98453,-2.98452 0,-1.14649 0.76433,-1.96542 1.71064,-2.45678 -7.17014,-2.47497 -14.77704,-5.87806 -15.79613,0.18199 -0.70974,4.20382 4.73155,10.24565 12.8844,13.35757 0,0 3.05732,-5.11373 11.88351,-4.54958 6.82437,-0.85532 10.42764,2.20199 10.42764,2.20199 3.71245,-3.87624 4.2584,-9.20834 4.07642,-11.00998 -0.36397,-3.2393 -3.87624,-2.202 -7.64329,-0.72794 z"
     id="path5" />
  <path
     style="fill:#ffffff;fill-opacity:1"
     inkscape:connector-curvature="0"
     d="m 380.50025,177.50653 c 0,0 -6.49678,-2.47497 -6.49678,-5.71426 0,-2.56597 1.16469,-4.71338 4.93173,-4.98635 3.76706,-0.27297 5.27752,1.52866 9.28115,1.61965 2.74794,0.0728 4.93174,-3.98543 7.66149,-1.98361 2.34759,1.72883 0.0364,6.66057 -1.34667,8.62599 -3.40309,0.25478 1.32847,-6.06004 -1.23749,-5.25931 -1.1465,0.34577 -2.02002,2.07461 -4.78617,2.27479 -6.06003,0.43676 -10.37304,-3.43948 -10.55502,-0.20018 -0.20017,3.3121 6.22383,2.62056 2.54776,5.62328 z"
     id="path7" />
  <path
     style="fill:#ffffff;fill-opacity:1"
     inkscape:connector-curvature="0"
     d="m 401.33734,182.2563 c 0,0 -24.18557,-3.69426 -37.85251,13.35757 0,6.26022 5.13193,9.09916 5.13193,9.09916 0,0 5.38671,-19.89077 32.72058,-22.45673 z"
     id="path9" />
</svg>

<svg width="580" height="580" viewBox="0 0 580 580" fill="none" xmlns="http://www.w3.org/2000/svg">
<g clip-path="url(#clip0)">
<path d="M66.2751 1.7679C24.9401 1.7679 1.7041 23.1389 1.7041 66.8039V516.927C1.7041 557.771 22.5991 579.156 63.8961 579.156H515.92C557.227 579.156 578.149 558.841 578.149 516.927V66.8039C578.149 24.2029 557.227 1.7679 514.628 1.7679C514.624 1.7679 66.1331 1.6249 66.2751 1.7679Z" fill="#111111" stroke="#EEEEEE" stroke-width="3.408"/>
<path d="M507.088 462.128C501.61 424.967 494.895 415.832 483.303 394.503C492.839 350.791 477.206 306.769 460.136 290.318C475.987 239.144 441.228 214.522 397.352 201.51C408.671 192.466 408.399 171.537 400.464 160.491C402.411 154.122 400.209 149.336 398.772 144.094C404.722 139.854 404.177 129.299 401.611 120.91C391.11 86.6787 362.521 54.6497 344.122 54.6497C249.764 54.6497 234.022 137.561 231.511 163.967C133.294 174.031 130.456 235.432 151.966 275.723C145.123 314.849 152.658 334.613 181.283 362.31C147.635 355.304 138.536 313.594 137.517 298.489C109.273 300.491 81.0653 328.371 89.1636 364.949C70.5467 387.588 58.9543 417.488 69.8005 465.786C62.1391 470.299 54.6777 483.147 54.6777 491.464C54.6777 513.793 63.8133 524.312 77.9534 524.731C100.61 525.404 138.936 525.349 153.422 525.349C167.908 525.349 166.98 514.23 166.98 509.171C166.98 497.287 156.588 486.095 141.684 476.632C159.755 469.863 167.78 441.637 166.361 432.865C172.803 436.487 202.885 439.653 211.001 436.523C217.88 452.592 227.689 476.014 244.068 486.696C244.068 486.696 244.523 491.428 242.739 489.098C240.938 486.751 237.826 485.75 234.131 485.75C219.536 485.75 212.894 525.349 251.11 525.349H312.257C329.527 525.349 337.443 517.16 337.443 504.348C337.443 487.861 331.474 470.973 319.482 462.383C322.994 435.632 323.849 393.375 294.513 358.471C304.777 312.047 296.97 278.817 269.909 248.262C309.691 270.518 321.52 324.804 311.147 351.628C330.71 375.086 337.571 390.718 339.518 413.684C414.841 368.735 427.216 339.199 426.597 311.865C425.851 279.035 396.551 230.154 396.551 230.154C401.174 234.049 433.549 275.341 440.155 305.514C443.358 320.181 446.014 364.84 391.51 403.621C393.694 435.322 406.415 463.238 434.459 481.51C438.426 490.281 435.023 498.761 431.347 500.454C434.459 489.699 429.363 485.75 422.011 485.75C407.416 485.75 400.773 525.349 438.99 525.349H500.136C517.406 525.349 525.323 517.16 525.323 504.348C525.286 487.715 519.281 470.663 507.088 462.128V462.128ZM368.471 209.135C350.928 209.135 349.29 184.167 354.313 178.598C321.483 152.866 337.043 138.435 352.202 141.201C359.299 142.493 382.066 146.915 392.293 146.023C394.513 149.736 393.658 156.524 392.602 162.074C395.077 164.44 399.318 169.827 398.48 180C397.971 186.096 390.273 209.135 368.471 209.135V209.135Z" fill="white"/>
<path d="M390.309 150.245C391.601 150.573 392.657 151.574 392.657 152.975C392.657 154.631 391.328 155.96 389.672 155.96C388.016 155.96 386.687 154.631 386.687 152.975C386.687 152.375 387.015 151.883 387.343 151.41C385.541 152.102 383.83 152.684 382.575 152.684C381.264 152.684 379.754 152.356 378.189 151.938C378.407 152.356 378.735 152.739 378.735 153.248C378.735 154.904 377.406 156.233 375.75 156.233C374.094 156.233 372.766 154.904 372.766 153.248C372.766 152.102 373.53 151.283 374.476 150.791C367.306 148.316 359.699 144.913 358.68 150.973C357.971 155.177 363.412 161.219 371.565 164.331C371.565 164.331 374.622 159.217 383.448 159.781C390.273 158.926 393.876 161.983 393.876 161.983C397.588 158.107 398.134 152.775 397.952 150.973C397.588 147.734 394.076 148.771 390.309 150.245V150.245Z" fill="white"/>
<path d="M380.501 177.507C380.501 177.507 374.004 175.032 374.004 171.792C374.004 169.226 375.169 167.079 378.936 166.806C382.703 166.533 384.213 168.335 388.217 168.426C390.965 168.498 393.149 164.44 395.878 166.442C398.226 168.171 395.915 173.103 394.532 175.068C391.128 175.323 395.86 169.008 393.294 169.809C392.148 170.154 391.274 171.883 388.508 172.083C382.448 172.52 378.135 168.644 377.953 171.883C377.753 175.195 384.177 174.504 380.501 177.507V177.507Z" fill="white"/>
<path d="M401.337 182.256C401.337 182.256 377.151 178.562 363.484 195.614C363.484 201.874 368.616 204.713 368.616 204.713C368.616 204.713 374.003 184.822 401.337 182.256V182.256Z" fill="white"/>
</g>
<defs>
<clipPath id="clip0">
<path d="M0 0H580V580H0V0Z" fill="white"/>
</clipPath>
</defs>
</svg>
